X:12
T:Reel 12
M:4/4
K:Dmaj
L:1/8
dB|A>D (3DCD AGEG|A>D (3DCD AGGF|E>A, (3CB,C ECEG||AdcA GECE:||2Adde fded|cAGE DEFG|Ad (3dcd ed (3dcd |Ac (3dcd edcd|ec (3cBc ecdc|AGEF GECE|A>d (3dcd fd (3dcd |Ad (3dcd edcd|ecdB cABd|cAGE DEFG|A| (3dcd Ad  (3dcd cd|A>D (3DCD AdcA|GECE  (3EEE cG|CGcd cdec|AddB cdcdcd|Adde fedc|AcBd cAAB|cAGE DEFG|
